32x32/apps/civilization6.svg

<svg xmlns="http://www.w3.org/2000/svg" width="32" height="32" version="1.1">
 <path style="opacity:0.2" d="M 26.955078,5.9565901 A 3.0003,3.0003 0 0 0 24,8.9995589 V 24.999559 a 3.0003,3.0003 0 1 0 6,0 V 8.9995589 A 3.0003,3.0003 0 0 0 26.955078,5.9565901 Z m -7.945312,0.00391 A 3.0003,3.0003 0 0 0 16.251953,7.7964339 L 12,17.515184 7.7480469,7.7964339 A 3.0003,3.0003 0 0 0 4.9003906,5.9624495 3.0003,3.0003 0 0 0 2.2519531,10.202684 l 6.828125,15.605469 a 3.0003,3.0003 0 0 0 2.7148439,2.228515 3.0003,3.0003 0 0 0 0.248047,0.0059 3.0003,3.0003 0 0 0 0.236328,-0.01172 3.0003,3.0003 0 0 0 2.638672,-2.216797 L 21.748047,10.202684 A 3.0003,3.0003 0 0 0 19.009766,5.9604964 Z"/>
 <path style="fill:none;stroke:#c0562a;stroke-width:6;stroke-linecap:round;stroke-linejoin:round" d="m 5,8 7,16"/>
 <path style="opacity:0.1;fill:#f4f4f7" d="M 4.9003906 4.9628906 A 3.0003 3.0003 0 0 0 2.0273438 8.4667969 A 3.0003 3.0003 0 0 1 4.9003906 5.9628906 A 3.0003 3.0003 0 0 1 7.7480469 7.796875 L 14.748047 23.796875 A 3.0003 3.0003 0 0 1 14.976562 24.542969 A 3.0003 3.0003 0 0 0 14.748047 22.796875 L 7.7480469 6.796875 A 3.0003 3.0003 0 0 0 4.9003906 4.9628906 z"/>
 <path style="fill:none;stroke:#c0562a;stroke-width:6;stroke-linecap:round;stroke-linejoin:round" d="M 27,8 V 24"/>
 <path style="fill:none;stroke:#ea8c46;stroke-width:6;stroke-linecap:round;stroke-linejoin:round" d="M 19,8 12,24"/>
 <path style="opacity:0.1;fill:#f4f4f7" d="M 26.955078 4.9570312 A 3.0003 3.0003 0 0 0 24 8 L 24 9 A 3.0003 3.0003 0 0 1 26.955078 5.9570312 A 3.0003 3.0003 0 0 1 30 9 L 30 8 A 3.0003 3.0003 0 0 0 26.955078 4.9570312 z"/>
 <path style="opacity:0.2;fill:#f4f4f7" d="M 19.009766 4.9609375 A 3.0003 3.0003 0 0 0 16.251953 6.796875 L 9.2519531 22.796875 A 3.0003 3.0003 0 0 0 9.0234375 24.552734 A 3.0003 3.0003 0 0 1 9.2519531 23.796875 L 16.251953 7.796875 A 3.0003 3.0003 0 0 1 19.009766 5.9609375 A 3.0003 3.0003 0 0 1 21.972656 8.4433594 A 3.0003 3.0003 0 0 0 19.009766 4.9609375 z"/>
</svg>

<svg xmlns="http://www.w3.org/2000/svg" width="32" height="32"><path style="opacity:.2" d="M26.955 5.957A3 3 0 0 0 24 9v16a3 3 0 1 0 6 0V9a3 3 0 0 0-3.045-3.043zm-7.945.004a3 3 0 0 0-2.758 1.835L12 17.516l-4.252-9.72A3 3 0 0 0 4.9 5.962a3 3 0 0 0-2.648 4.24L9.08 25.809a3 3 0 0 0 2.715 2.229 3 3 0 0 0 .248.006 3 3 0 0 0 .236-.012 3 3 0 0 0 2.639-2.217l6.83-15.611A3 3 0 0 0 19.01 5.96z"/><path style="fill:none;stroke:#c0562a;stroke-width:6;stroke-linecap:round;stroke-linejoin:round" d="m5 8 7 16"/><path style="opacity:.1;fill:#f4f4f7" d="M4.9 4.963a3 3 0 0 0-2.873 3.504A3 3 0 0 1 4.9 5.963a3 3 0 0 1 2.848 1.834l7 16a3 3 0 0 1 .229.746 3 3 0 0 0-.229-1.746l-7-16A3 3 0 0 0 4.9 4.963z"/><path style="fill:none;stroke:#c0562a;stroke-width:6;stroke-linecap:round;stroke-linejoin:round" d="M27 8v16"/><path style="fill:none;stroke:#ea8c46;stroke-width:6;stroke-linecap:round;stroke-linejoin:round" d="m19 8-7 16"/><path style="opacity:.1;fill:#f4f4f7" d="M26.955 4.957A3 3 0 0 0 24 8v1a3 3 0 0 1 2.955-3.043A3 3 0 0 1 30 9V8a3 3 0 0 0-3.045-3.043z"/><path style="opacity:.2;fill:#f4f4f7" d="M19.01 4.96a3 3 0 0 0-2.758 1.837l-7 16a3 3 0 0 0-.229 1.756 3 3 0 0 1 .229-.756l7-16A3 3 0 0 1 19.01 5.96a3 3 0 0 1 2.963 2.482 3 3 0 0 0-2.963-3.482z"/></svg>
